Newaita-dark/apps/64/com.github.artemanufrij.webpin.svg

<svg height="64pt" viewBox="0 0 64 64" width="64pt" xmlns="http://www.w3.org/2000/svg" xmlns:xlink="http://www.w3.org/1999/xlink"><linearGradient id="a"><stop offset="0" stop-opacity=".313725"/><stop offset=".222222" stop-opacity=".27451"/><stop offset="1" stop-opacity="0"/></linearGradient><radialGradient id="b" cx="450.90894" cy="189.57936" gradientTransform="matrix(.00000035 -.156265 -.281277 -.0000002 100.292171 128.513714)" gradientUnits="userSpaceOnUse" r="21.166656" xlink:href="#a"/><radialGradient id="c" cx="450.90894" cy="189.57936" gradientTransform="matrix(-.00000035 .156265 .281277 .0000002 -39.43219 -13.731912)" gradientUnits="userSpaceOnUse" r="21.166656" xlink:href="#a"/><radialGradient id="d" cx="450.90894" cy="189.57936" gradientTransform="matrix(-.00000035 -.156265 .281277 -.0000002 -39.43219 128.513714)" gradientUnits="userSpaceOnUse" r="21.166656" xlink:href="#a"/><radialGradient id="e" cx="450.90894" cy="189.57936" gradientTransform="matrix(.00000035 .156265 -.281277 .0000002 100.292167 -13.731913)" gradientUnits="userSpaceOnUse" r="21.166656" xlink:href="#a"/><linearGradient id="f" gradientTransform="matrix(.0267201 0 0 .125012 20.30012 28.200618)" gradientUnits="userSpaceOnUse" x1="255.32306" x2="255.32304" y1="233.5" y2="254.66666"><stop offset="0" stop-opacity=".27451"/><stop offset="1" stop-opacity="0"/></linearGradient><linearGradient id="g" gradientUnits="userSpaceOnUse" x1="31.753048" x2="31.753048" y1="57.39091175004" y2="17.69960049992"><stop offset="0" stop-color="#42a5f5"/><stop offset="1" stop-color="#64b5f6"/></linearGradient><linearGradient id="h" gradientUnits="userSpaceOnUse" x1="31.753048" x2="31.753048" y1="53.42178024996" y2="5.79220824996"><stop offset="0" stop-color="#bdbdbd"/><stop offset="1" stop-color="#e0e0e0"/></linearGradient><path d="m47.628906 57.390625h5.292969v-2.644531h-5.292969zm0 0" fill="url(#b)"/><path d="m13.230469 57.390625h-5.292969v2.644531h5.292969zm0 0" fill="url(#c)"/><path d="m13.230469 57.390625h-5.292969v-2.644531h5.292969zm0 0" fill="url(#d)"/><path d="m47.628906 57.390625h5.292969v2.644531h-5.292969zm0 0" fill="url(#e)"/><path d="m13.230469 56.730469h34.398437v3.304687h-34.398437zm0 0" fill="url(#f)"/><path d="m30.402344 17.675781c-10.261719 0-18.523438 8.726563-18.523438 19.566407v.5625c0 .355468.011719.710937.027344 1.058593-4.457031.289063-7.964844 4.089844-7.964844 8.773438v.941406c0 4.871094 3.792969 8.789063 8.507813 8.789063h7.394531v.019531h27.785156c7.332032 0 13.230469-5.902344 13.230469-13.230469 0-7.222656-5.730469-13.058594-12.910156-13.226562-2.476563-7.722657-9.375-13.253907-17.546875-13.253907zm0 0" fill="url(#g)"/><path d="m13.179688 38.867188c-5.15625 0-9.308594 4.132812-9.308594 9.261718 0 .140625.003906.277344.007812.414063.214844-4.9375 4.28125-8.847657 9.300782-8.847657 5.019531 0 9.085937 3.910157 9.300781 8.847657.007812-.136719.011719-.273438.011719-.414063 0-5.128906-4.152344-9.261718-9.3125-9.261718zm0 0" fill="#fafafa" fill-opacity=".392157"/><path d="m30.402344 17.675781c-10.261719 0-18.523438 8.726563-18.523438 19.566407v.5625c0 .074218.003906.144531.003906.21875.117188-10.730469 8.332032-19.332032 18.519532-19.332032 8.171875 0 15.070312 5.53125 17.546875 13.253906 7.011719.164063 12.640625 5.730469 12.902343 12.71875.003907-.167968.007813-.339843.007813-.507812 0-7.222656-5.730469-13.058594-12.910156-13.226562-2.476563-7.722657-9.375-13.253907-17.546875-13.253907zm-18.519532 21.191407c-4.449218.300781-7.941406 4.097656-7.941406 8.769531v.941406.035156c.019532-4.664062 3.519532-8.449219 7.964844-8.734375-.015625-.335937-.023438-.671875-.023438-1.011718zm0 0" fill="#fff" fill-opacity=".392157"/><path d="m11.882812 37.007812c0 .078126-.003906.15625-.003906.234376v.5625c0 .015624.003906.03125.003906.046874h.023438c-.011719-.28125-.019531-.5625-.023438-.84375zm48.96875 6.640626c-.265624 7.09375-6.0625 12.726562-13.222656 12.726562h-27.785156v-.019531h-7.394531c-4.703125 0-8.488281-3.902344-8.507813-8.753907v.035157.941406c0 4.871094 3.792969 8.789063 8.507813 8.789063h7.394531v.019531h27.785156c7.332032 0 13.230469-5.902344 13.230469-13.230469 0-.167969-.003906-.339844-.007813-.507812zm0 0" fill-opacity=".235294"/><path d="m47.960938 30.929688c-7.148438 0-12.898438 5.902343-12.898438 13.230468 0 .167969 0 .332032.007812.496094.253907-7.097656 5.90625-12.734375 12.890626-12.734375 6.984374 0 12.636718 5.636719 12.890624 12.734375.003907-.164062.007813-.328125.007813-.496094 0-7.328125-5.753906-13.230468-12.898437-13.230468zm0 0" fill="#fafafa" fill-opacity=".392157"/><path d="m30.402344 17.492188c-10.367188 0-18.710938 8.816406-18.710938 19.75v.5625c0 .300781.011719.597656.023438.894531-4.46875.382812-7.960938 4.226562-7.960938 8.9375v.941406c0 4.96875 3.878906 8.976563 8.695313 8.976563h7.316406c.027344.011718.050781.019531.078125.019531h27.785156c7.429688 0 13.417969-5.988281 13.417969-13.417969 0-7.277344-5.746094-13.164062-12.964844-13.402344-2.53125-7.730468-9.46875-13.261718-17.679687-13.261718zm0 .375c8.085937 0 14.914062 5.46875 17.367187 13.121093.023438.074219.09375.128907.175781.128907 7.082032.167968 12.726563 5.914062 12.726563 13.039062 0 7.230469-5.8125 13.042969-13.042969 13.042969h-27.703125c-.027343-.011719-.050781-.019531-.082031-.019531h-7.394531c-4.609375 0-8.320313-3.828126-8.320313-8.601563v-.941406c0-4.589844 3.433594-8.304688 7.789063-8.585938.105469-.003906.183593-.09375.175781-.195312-.015625-.347657-.027344-.699219-.027344-1.050781v-.5625c0-10.742188 8.183594-19.375 18.335938-19.375zm0 0" fill="#212121"/><path d="m16.277344 5.476562c-1.667969-.03125-3.089844 1.203126-3.289063 2.859376-1.886719 13.96875 1.769531 28.148437 4.273438 39.109374.292969 1.296876 1.351562 2.28125 2.664062 2.488282 1.3125.207031 2.621094-.410156 3.296875-1.550782l8.191406-13.804687 4.234376 15.480469c.351562 1.285156 1.449218 2.222656 2.769531 2.371094 1.320312.152343 2.601562-.519532 3.230469-1.6875 5.34375-9.945313 12.691406-23.214844 14.496093-36.578126.167969-1.15625-.296875-2.316406-1.21875-3.039062-.925781-.71875-2.164062-.886719-3.246093-.4375-1.082032.449219-1.835938 1.445312-1.980469 2.609375-1.203125 8.910156-5.558594 18.578125-9.949219 27.117187l-4.085938-14.941406c-.34375-1.257812-1.40625-2.191406-2.699218-2.363281-1.292969-.175781-2.566406.4375-3.230469 1.5625l-7.925781 13.355469c-1.988282-9.238282-3.652344-19.375-2.378906-28.820313.140624-.925781-.128907-1.863281-.730469-2.578125-.605469-.714844-1.484375-1.136718-2.421875-1.152344zm0 0" fill="url(#h)"/><path d="m16.277344 5.476562c-1.667969-.03125-3.089844 1.203126-3.289063 2.859376-.386719 2.859374-.539062 5.730468-.519531 8.578124.019531-2.515624.179688-5.042968.519531-7.566406.199219-1.65625 1.621094-2.894531 3.289063-2.859375 1.578125.027344 2.90625 1.1875 3.148437 2.746094.003907-.007813.003907-.019531.003907-.027344.140624-.925781-.128907-1.863281-.730469-2.578125-.605469-.714844-1.484375-1.136718-2.421875-1.152344zm36.707031 4.964844c-1.664063-.03125-3.082031 1.203125-3.285156 2.855469-1.203125 8.910156-5.558594 18.578125-9.949219 27.117187l-4.085938-14.941406c-.34375-1.257812-1.40625-2.191406-2.699218-2.363281-1.292969-.175781-2.566406.4375-3.230469 1.5625l-7.925781 13.355469c-1.449219-6.730469-2.726563-13.9375-2.816406-21.007813-.007813.4375-.007813.878907-.003907 1.316407 0-.101563 0-.203126.003907-.304688.089843 7.070312 1.367187 14.277344 2.816406 21.007812l7.925781-13.359374c.664063-1.121094 1.9375-1.734376 3.230469-1.558594 1.292968.171875 2.355468 1.101562 2.699218 2.363281l4.085938 14.9375c4.390625-8.535156 8.746094-18.203125 9.949219-27.113281.203125-1.652344 1.621093-2.886719 3.285156-2.855469 1.578125.027344 2.910156 1.183594 3.152344 2.746094.003906-.011719.003906-.023438.007812-.035157.136719-.921874-.132812-1.863281-.738281-2.574218-.605469-.714844-1.488281-1.132813-2.421875-1.148438zm0 0" fill="#fff" fill-opacity=".784314"/><path d="m13.503906 29.191406c-.0625.152344-.125.308594-.1875.460938.976563 7.078125 2.621094 13.765625 3.945313 19.558594.292969 1.296874 1.351562 2.28125 2.664062 2.484374 1.3125.207032 2.621094-.40625 3.296875-1.550781l8.191406-13.804687 4.234376 15.484375c.351562 1.28125 1.449218 2.21875 2.769531 2.371093 1.320312.148438 2.601562-.519531 3.230469-1.691406 3.21875-5.992187 7.167968-13.195312 10.191406-20.898437-.207032-.070313-.417969-.132813-.632813-.191407-2.925781 7.109376-6.558593 13.742188-9.558593 19.328126-.628907 1.167968-1.910157 1.839843-3.230469 1.6875-1.320313-.148438-2.417969-1.085938-2.769531-2.371094l-4.234376-15.480469-8.191406 13.804687c-.675781 1.140626-1.984375 1.757813-3.296875 1.550782-1.3125-.207032-2.371093-1.191406-2.664062-2.488282-1.242188-5.433593-2.765625-11.65625-3.757813-18.253906zm0 0" fill-opacity=".235294"/><path d="m130.206316-171.191683c-13.342476-.249977-24.71639 9.62408-26.309988 22.872815-15.092308 111.73933 14.154899 225.165998 34.184236 312.845125 2.343526 10.374009 10.811468 18.248257 21.310465 19.904349s20.966748-3.280936 26.372481-12.405065l65.524993-110.426955 33.871766 123.831925c2.812231 10.280268 11.592643 17.779552 22.154134 18.966939 10.561491 1.218633 20.810513-4.155854 25.841282-13.498711 42.745918-79.554903 101.521555-185.701017 115.957677-292.597059 1.343622-9.249117-2.374773-18.52948-9.749069-24.310178-7.405543-5.749451-17.310847-7.093073-25.966271-3.499666-8.655423 3.593407-14.686097 11.561396-15.842237 20.873007-9.624081 71.274443-44.464504 148.610808-79.58615 216.916785l-32.684378-119.519836c-2.749738-10.061539-11.248926-17.529576-21.591688-18.904445-10.342763-1.406116-20.52929 3.499666-25.841283 12.498806l-63.400195 106.833548c-15.904732-73.899193-29.21596-154.985199-19.029433-230.540484 1.124892-7.405543-1.031152-14.904827-5.843192-20.623031-4.843288-5.718204-11.873866-9.092881-19.37315-9.217869zm0 0" fill="none" stroke="#212121" stroke-linecap="round" stroke-linejoin="round" stroke-width="3" transform="matrix(.125012 0 0 .125012 0 26.877566)"/></svg>

<?xml version="1.0" encoding="UTF-8"?>
<svg xmlns="http://www.w3.org/2000/svg" xmlns:xlink="http://www.w3.org/1999/xlink" width="64pt" height="64pt" viewBox="0 0 64 64" version="1.1">
<defs>
<radialGradient id="radial0" gradientUnits="userSpaceOnUse" cx="450.90894" cy="189.57936" fx="450.90894" fy="189.57936" r="21.166656" gradientTransform="matrix(0.000000348341,-0.156265,-0.281277,-0.000000203077,100.292171,128.513714)">
<stop offset="0" style="stop-color:rgb(0%,0%,0%);stop-opacity:0.313725;"/>
<stop offset="0.222222" style="stop-color:rgb(0%,0%,0%);stop-opacity:0.27451;"/>
<stop offset="1" style="stop-color:rgb(0%,0%,0%);stop-opacity:0;"/>
</radialGradient>
<radialGradient id="radial1" gradientUnits="userSpaceOnUse" cx="450.90894" cy="189.57936" fx="450.90894" fy="189.57936" r="21.166656" gradientTransform="matrix(-0.000000348341,0.156265,0.281277,0.000000203077,-39.43219,-13.731912)">
<stop offset="0" style="stop-color:rgb(0%,0%,0%);stop-opacity:0.313725;"/>
<stop offset="0.222222" style="stop-color:rgb(0%,0%,0%);stop-opacity:0.27451;"/>
<stop offset="1" style="stop-color:rgb(0%,0%,0%);stop-opacity:0;"/>
</radialGradient>
<radialGradient id="radial2" gradientUnits="userSpaceOnUse" cx="450.90894" cy="189.57936" fx="450.90894" fy="189.57936" r="21.166656" gradientTransform="matrix(-0.000000348341,-0.156265,0.281277,-0.000000203077,-39.43219,128.513714)">
<stop offset="0" style="stop-color:rgb(0%,0%,0%);stop-opacity:0.313725;"/>
<stop offset="0.222222" style="stop-color:rgb(0%,0%,0%);stop-opacity:0.27451;"/>
<stop offset="1" style="stop-color:rgb(0%,0%,0%);stop-opacity:0;"/>
</radialGradient>
<radialGradient id="radial3" gradientUnits="userSpaceOnUse" cx="450.90894" cy="189.57936" fx="450.90894" fy="189.57936" r="21.166656" gradientTransform="matrix(0.000000348341,0.156265,-0.281277,0.000000203077,100.292167,-13.731913)">
<stop offset="0" style="stop-color:rgb(0%,0%,0%);stop-opacity:0.313725;"/>
<stop offset="0.222222" style="stop-color:rgb(0%,0%,0%);stop-opacity:0.27451;"/>
<stop offset="1" style="stop-color:rgb(0%,0%,0%);stop-opacity:0;"/>
</radialGradient>
<linearGradient id="linear0" gradientUnits="userSpaceOnUse" x1="255.32306" y1="233.5" x2="255.32304" y2="254.66666" gradientTransform="matrix(0.0267201,0,0,0.125012,20.30012,28.200618)">
<stop offset="0" style="stop-color:rgb(0%,0%,0%);stop-opacity:0.27451;"/>
<stop offset="1" style="stop-color:rgb(0%,0%,0%);stop-opacity:0;"/>
</linearGradient>
<linearGradient id="linear1" gradientUnits="userSpaceOnUse" x1="254" y1="191.16667" x2="254" y2="-126.33334" gradientTransform="matrix(0.125012,0,0,0.125012,0,33.492784)">
<stop offset="0" style="stop-color:rgb(25.882353%,64.705882%,96.078431%);stop-opacity:1;"/>
<stop offset="1" style="stop-color:rgb(39.215686%,70.980392%,96.470588%);stop-opacity:1;"/>
</linearGradient>
<linearGradient id="linear2" gradientUnits="userSpaceOnUse" x1="254" y1="212.33333" x2="254" y2="-168.66667" gradientTransform="matrix(0.125012,0,0,0.125012,0,26.877566)">
<stop offset="0" style="stop-color:rgb(74.117647%,74.117647%,74.117647%);stop-opacity:1;"/>
<stop offset="1" style="stop-color:rgb(87.843137%,87.843137%,87.843137%);stop-opacity:1;"/>
</linearGradient>
</defs>
<g id="surface1">
<path style=" stroke:none;fill-rule:nonzero;fill:url(#radial0);" d="M 47.628906 57.390625 L 52.921875 57.390625 L 52.921875 54.746094 L 47.628906 54.746094 Z M 47.628906 57.390625 "/>
<path style=" stroke:none;fill-rule:nonzero;fill:url(#radial1);" d="M 13.230469 57.390625 L 7.9375 57.390625 L 7.9375 60.035156 L 13.230469 60.035156 Z M 13.230469 57.390625 "/>
<path style=" stroke:none;fill-rule:nonzero;fill:url(#radial2);" d="M 13.230469 57.390625 L 7.9375 57.390625 L 7.9375 54.746094 L 13.230469 54.746094 Z M 13.230469 57.390625 "/>
<path style=" stroke:none;fill-rule:nonzero;fill:url(#radial3);" d="M 47.628906 57.390625 L 52.921875 57.390625 L 52.921875 60.035156 L 47.628906 60.035156 Z M 47.628906 57.390625 "/>
<path style=" stroke:none;fill-rule:nonzero;fill:url(#linear0);" d="M 13.230469 56.730469 L 47.628906 56.730469 L 47.628906 60.035156 L 13.230469 60.035156 Z M 13.230469 56.730469 "/>
<path style=" stroke:none;fill-rule:nonzero;fill:url(#linear1);" d="M 30.402344 17.675781 C 20.140625 17.675781 11.878906 26.402344 11.878906 37.242188 L 11.878906 37.804688 C 11.878906 38.160156 11.890625 38.515625 11.90625 38.863281 C 7.449219 39.152344 3.941406 42.953125 3.941406 47.636719 L 3.941406 48.578125 C 3.941406 53.449219 7.734375 57.367188 12.449219 57.367188 L 19.84375 57.367188 L 19.84375 57.386719 L 47.628906 57.386719 C 54.960938 57.386719 60.859375 51.484375 60.859375 44.15625 C 60.859375 36.933594 55.128906 31.097656 47.949219 30.929688 C 45.472656 23.207031 38.574219 17.675781 30.402344 17.675781 Z M 30.402344 17.675781 "/>
<path style=" stroke:none;fill-rule:nonzero;fill:rgb(98.039216%,98.039216%,98.039216%);fill-opacity:0.392157;" d="M 13.179688 38.867188 C 8.023438 38.867188 3.871094 43 3.871094 48.128906 C 3.871094 48.269531 3.875 48.40625 3.878906 48.542969 C 4.09375 43.605469 8.160156 39.695312 13.179688 39.695312 C 18.199219 39.695312 22.265625 43.605469 22.480469 48.542969 C 22.488281 48.40625 22.492188 48.269531 22.492188 48.128906 C 22.492188 43 18.339844 38.867188 13.179688 38.867188 Z M 13.179688 38.867188 "/>
<path style=" stroke:none;fill-rule:nonzero;fill:rgb(100%,100%,100%);fill-opacity:0.392157;" d="M 30.402344 17.675781 C 20.140625 17.675781 11.878906 26.402344 11.878906 37.242188 L 11.878906 37.804688 C 11.878906 37.878906 11.882812 37.949219 11.882812 38.023438 C 12 27.292969 20.214844 18.691406 30.402344 18.691406 C 38.574219 18.691406 45.472656 24.222656 47.949219 31.945312 C 54.960938 32.109375 60.589844 37.675781 60.851562 44.664062 C 60.855469 44.496094 60.859375 44.324219 60.859375 44.15625 C 60.859375 36.933594 55.128906 31.097656 47.949219 30.929688 C 45.472656 23.207031 38.574219 17.675781 30.402344 17.675781 Z M 11.882812 38.867188 C 7.433594 39.167969 3.941406 42.964844 3.941406 47.636719 L 3.941406 48.578125 C 3.941406 48.589844 3.941406 48.601562 3.941406 48.613281 C 3.960938 43.949219 7.460938 40.164062 11.90625 39.878906 C 11.890625 39.542969 11.882812 39.207031 11.882812 38.867188 Z M 11.882812 38.867188 "/>
<path style=" stroke:none;fill-rule:nonzero;fill:rgb(0%,0%,0%);fill-opacity:0.235294;" d="M 11.882812 37.007812 C 11.882812 37.085938 11.878906 37.164062 11.878906 37.242188 L 11.878906 37.804688 C 11.878906 37.820312 11.882812 37.835938 11.882812 37.851562 C 11.890625 37.851562 11.898438 37.851562 11.90625 37.851562 C 11.894531 37.570312 11.886719 37.289062 11.882812 37.007812 Z M 60.851562 43.648438 C 60.585938 50.742188 54.789062 56.375 47.628906 56.375 L 19.84375 56.375 L 19.84375 56.355469 L 12.449219 56.355469 C 7.746094 56.355469 3.960938 52.453125 3.941406 47.601562 C 3.941406 47.613281 3.941406 47.625 3.941406 47.636719 L 3.941406 48.578125 C 3.941406 53.449219 7.734375 57.367188 12.449219 57.367188 L 19.84375 57.367188 L 19.84375 57.386719 L 47.628906 57.386719 C 54.960938 57.386719 60.859375 51.484375 60.859375 44.15625 C 60.859375 43.988281 60.855469 43.816406 60.851562 43.648438 Z M 60.851562 43.648438 "/>
<path style=" stroke:none;fill-rule:nonzero;fill:rgb(98.039216%,98.039216%,98.039216%);fill-opacity:0.392157;" d="M 47.960938 30.929688 C 40.8125 30.929688 35.0625 36.832031 35.0625 44.160156 C 35.0625 44.328125 35.0625 44.492188 35.070312 44.65625 C 35.324219 37.558594 40.976562 31.921875 47.960938 31.921875 C 54.945312 31.921875 60.597656 37.558594 60.851562 44.65625 C 60.855469 44.492188 60.859375 44.328125 60.859375 44.160156 C 60.859375 36.832031 55.105469 30.929688 47.960938 30.929688 Z M 47.960938 30.929688 "/>
<path style=" stroke:none;fill-rule:nonzero;fill:rgb(12.941176%,12.941176%,12.941176%);fill-opacity:1;" d="M 30.402344 17.492188 C 20.035156 17.492188 11.691406 26.308594 11.691406 37.242188 L 11.691406 37.804688 C 11.691406 38.105469 11.703125 38.402344 11.714844 38.699219 C 7.246094 39.082031 3.753906 42.925781 3.753906 47.636719 L 3.753906 48.578125 C 3.753906 53.546875 7.632812 57.554688 12.449219 57.554688 L 19.765625 57.554688 C 19.792969 57.566406 19.816406 57.574219 19.84375 57.574219 L 47.628906 57.574219 C 55.058594 57.574219 61.046875 51.585938 61.046875 44.15625 C 61.046875 36.878906 55.300781 30.992188 48.082031 30.753906 C 45.550781 23.023438 38.613281 17.492188 30.402344 17.492188 Z M 30.402344 17.867188 C 38.488281 17.867188 45.316406 23.335938 47.769531 30.988281 C 47.792969 31.0625 47.863281 31.117188 47.945312 31.117188 C 55.027344 31.285156 60.671875 37.03125 60.671875 44.15625 C 60.671875 51.386719 54.859375 57.199219 47.628906 57.199219 L 19.925781 57.199219 C 19.898438 57.1875 19.875 57.179688 19.84375 57.179688 L 12.449219 57.179688 C 7.839844 57.179688 4.128906 53.351562 4.128906 48.578125 L 4.128906 47.636719 C 4.128906 43.046875 7.5625 39.332031 11.917969 39.050781 C 12.023438 39.046875 12.101562 38.957031 12.09375 38.855469 C 12.078125 38.507812 12.066406 38.15625 12.066406 37.804688 L 12.066406 37.242188 C 12.066406 26.5 20.25 17.867188 30.402344 17.867188 Z M 30.402344 17.867188 "/>
<path style=" stroke:none;fill-rule:nonzero;fill:url(#linear2);" d="M 16.277344 5.476562 C 14.609375 5.445312 13.1875 6.679688 12.988281 8.335938 C 11.101562 22.304688 14.757812 36.484375 17.261719 47.445312 C 17.554688 48.742188 18.613281 49.726562 19.925781 49.933594 C 21.238281 50.140625 22.546875 49.523438 23.222656 48.382812 L 31.414062 34.578125 L 35.648438 50.058594 C 36 51.34375 37.097656 52.28125 38.417969 52.429688 C 39.738281 52.582031 41.019531 51.910156 41.648438 50.742188 C 46.992188 40.796875 54.339844 27.527344 56.144531 14.164062 C 56.3125 13.007812 55.847656 11.847656 54.925781 11.125 C 54 10.40625 52.761719 10.238281 51.679688 10.6875 C 50.597656 11.136719 49.84375 12.132812 49.699219 13.296875 C 48.496094 22.207031 44.140625 31.875 39.75 40.414062 L 35.664062 25.472656 C 35.320312 24.214844 34.257812 23.28125 32.964844 23.109375 C 31.671875 22.933594 30.398438 23.546875 29.734375 24.671875 L 21.808594 38.027344 C 19.820312 28.789062 18.15625 18.652344 19.429688 9.207031 C 19.570312 8.28125 19.300781 7.34375 18.699219 6.628906 C 18.09375 5.914062 17.214844 5.492188 16.277344 5.476562 Z M 16.277344 5.476562 "/>
<path style=" stroke:none;fill-rule:nonzero;fill:rgb(100%,100%,100%);fill-opacity:0.784314;" d="M 16.277344 5.476562 C 14.609375 5.445312 13.1875 6.679688 12.988281 8.335938 C 12.601562 11.195312 12.449219 14.066406 12.46875 16.914062 C 12.488281 14.398438 12.648438 11.871094 12.988281 9.347656 C 13.1875 7.691406 14.609375 6.453125 16.277344 6.488281 C 17.855469 6.515625 19.183594 7.675781 19.425781 9.234375 C 19.429688 9.226562 19.429688 9.214844 19.429688 9.207031 C 19.570312 8.28125 19.300781 7.34375 18.699219 6.628906 C 18.09375 5.914062 17.214844 5.492188 16.277344 5.476562 Z M 52.984375 10.441406 C 51.320312 10.410156 49.902344 11.644531 49.699219 13.296875 C 48.496094 22.207031 44.140625 31.875 39.75 40.414062 L 35.664062 25.472656 C 35.320312 24.214844 34.257812 23.28125 32.964844 23.109375 C 31.671875 22.933594 30.398438 23.546875 29.734375 24.671875 L 21.808594 38.027344 C 20.359375 31.296875 19.082031 24.089844 18.992188 17.019531 C 18.984375 17.457031 18.984375 17.898438 18.988281 18.335938 C 18.988281 18.234375 18.988281 18.132812 18.992188 18.03125 C 19.082031 25.101562 20.359375 32.308594 21.808594 39.039062 L 29.734375 25.679688 C 30.398438 24.558594 31.671875 23.945312 32.964844 24.121094 C 34.257812 24.292969 35.320312 25.222656 35.664062 26.484375 L 39.75 41.421875 C 44.140625 32.886719 48.496094 23.21875 49.699219 14.308594 C 49.902344 12.65625 51.320312 11.421875 52.984375 11.453125 C 54.5625 11.480469 55.894531 12.636719 56.136719 14.199219 C 56.140625 14.1875 56.140625 14.175781 56.144531 14.164062 C 56.28125 13.242188 56.011719 12.300781 55.40625 11.589844 C 54.800781 10.875 53.917969 10.457031 52.984375 10.441406 Z M 52.984375 10.441406 "/>
<path style=" stroke:none;fill-rule:nonzero;fill:rgb(0%,0%,0%);fill-opacity:0.235294;" d="M 13.503906 29.191406 C 13.441406 29.34375 13.378906 29.5 13.316406 29.652344 C 14.292969 36.730469 15.9375 43.417969 17.261719 49.210938 C 17.554688 50.507812 18.613281 51.492188 19.925781 51.695312 C 21.238281 51.902344 22.546875 51.289062 23.222656 50.144531 L 31.414062 36.339844 L 35.648438 51.824219 C 36 53.105469 37.097656 54.042969 38.417969 54.195312 C 39.738281 54.34375 41.019531 53.675781 41.648438 52.503906 C 44.867188 46.511719 48.816406 39.308594 51.839844 31.605469 C 51.632812 31.535156 51.421875 31.472656 51.207031 31.414062 C 48.28125 38.523438 44.648438 45.15625 41.648438 50.742188 C 41.019531 51.910156 39.738281 52.582031 38.417969 52.429688 C 37.097656 52.28125 36 51.34375 35.648438 50.058594 L 31.414062 34.578125 L 23.222656 48.382812 C 22.546875 49.523438 21.238281 50.140625 19.925781 49.933594 C 18.613281 49.726562 17.554688 48.742188 17.261719 47.445312 C 16.019531 42.011719 14.496094 35.789062 13.503906 29.191406 Z M 13.503906 29.191406 "/>
<path style="fill:none;stroke-width:3;stroke-linecap:round;stroke-linejoin:round;stroke:rgb(12.941176%,12.941176%,12.941176%);stroke-opacity:1;stroke-miterlimit:4;" d="M 130.206316 -171.191683 C 116.86384 -171.44166 105.489926 -161.567603 103.896328 -148.318868 C 88.80402 -36.579538 118.051227 76.84713 138.080564 164.526257 C 140.42409 174.900266 148.892032 182.774514 159.391029 184.430606 C 169.890026 186.086698 180.357777 181.14967 185.76351 172.025541 L 251.288503 61.598586 L 285.160269 185.430511 C 287.9725 195.710779 296.752912 203.210063 307.314403 204.39745 C 317.875894 205.616083 328.124916 200.241596 333.155685 190.898739 C 375.901603 111.343836 434.67724 5.197722 449.113362 -101.69832 C 450.456984 -110.947437 446.738589 -120.2278 439.364293 -126.008498 C 431.95875 -131.757949 422.053446 -133.101571 413.398022 -129.508164 C 404.742599 -125.914757 398.711925 -117.946768 397.555785 -108.635157 C 387.931704 -37.360714 353.091281 39.975651 317.969635 108.281628 L 285.285257 -11.238208 C 282.535519 -21.299747 274.036331 -28.767784 263.693569 -30.142653 C 253.350806 -31.548769 243.164279 -26.642987 237.852286 -17.643847 L 174.452091 89.189701 C 158.547359 15.290508 145.236131 -65.795498 155.422658 -141.350783 C 156.54755 -148.756326 154.391506 -156.25561 149.579466 -161.973814 C 144.736178 -167.692018 137.7056 -171.066695 130.206316 -171.191683 Z M 130.206316 -171.191683 " transform="matrix(0.125012,0,0,0.125012,0,26.877566)"/>
</g>
</svg>
